svgs/regular/lock.svg

<svg xmlns="http://www.w3.org/2000/svg" viewBox="0 0 448 512"><!--! Font Awesome Pro 6.6.0 by @fontawesome - https://fontawesome.com License - https://fontawesome.com/license (Commercial License) Copyright 2024 Fonticons, Inc. --><path d="M144 128l0 64 160 0 0-64c0-44.2-35.8-80-80-80s-80 35.8-80 80zM96 192l0-64C96 57.3 153.3 0 224 0s128 57.3 128 128l0 64 32 0c35.3 0 64 28.7 64 64l0 192c0 35.3-28.7 64-64 64L64 512c-35.3 0-64-28.7-64-64L0 256c0-35.3 28.7-64 64-64l32 0zM48 256l0 192c0 8.8 7.2 16 16 16l320 0c8.8 0 16-7.2 16-16l0-192c0-8.8-7.2-16-16-16L64 240c-8.8 0-16 7.2-16 16z"/></svg>

<svg xmlns="http://www.w3.org/2000/svg" viewBox="0 0 448 512"><!--! Font Awesome Pro 6.4.2 by @fontawesome - https://fontawesome.com License - https://fontawesome.com/license (Commercial License) Copyright 2023 Fonticons, Inc. --><path d="M144 128v64H304V128c0-44.2-35.8-80-80-80s-80 35.8-80 80zM96 192V128C96 57.3 153.3 0 224 0s128 57.3 128 128v64h32c35.3 0 64 28.7 64 64V448c0 35.3-28.7 64-64 64H64c-35.3 0-64-28.7-64-64V256c0-35.3 28.7-64 64-64H96zM48 256V448c0 8.8 7.2 16 16 16H384c8.8 0 16-7.2 16-16V256c0-8.8-7.2-16-16-16H64c-8.8 0-16 7.2-16 16z"/></svg>
